X:1
T:Gigue Irlandaise
L:1/8
M:6/8
K:D
|: A | d2 A f2 d | e2 c A2 F | G2 E F2 D | E3 F2 A |
d2 A f2 d | e2 c A2 c | d2 f e2 c | d3 d2 :|